svgs/light/pedestal.svg

<svg xmlns="http://www.w3.org/2000/svg" viewBox="0 0 448 512"><!-- Font Awesome Pro 6.0.0-alpha2 by @fontawesome - https://fontawesome.com License - https://fontawesome.com/license (Commercial License) --><path d="M128 80C119.164 80 112 87.162 112 96C112 104.836 119.164 112 128 112S144 104.836 144 96C144 87.162 136.836 80 128 80ZM320 80C311.164 80 304 87.162 304 96C304 104.836 311.164 112 320 112S336 104.836 336 96C336 87.162 328.836 80 320 80ZM432.039 480.039H416V64C416 28.654 387.346 0 352 0H96C60.654 0 32 28.654 32 64V480.039H15.961C7.146 480.039 0 487.186 0 496S7.146 511.959 15.961 511.959H32V512H416V511.959H432.039C440.854 511.959 448 504.814 448 496S440.854 480.039 432.039 480.039ZM384 480H64V64C64 46.355 78.355 32 96 32H352C369.645 32 384 46.355 384 64V480Z"/></svg>

<svg xmlns="http://www.w3.org/2000/svg" viewBox="0 0 448 512"><!--! Font Awesome Pro 6.3.0 by @fontawesome - https://fontawesome.com License - https://fontawesome.com/license (Commercial License) Copyright 2023 Fonticons, Inc. --><path d="M128 80C119.2 80 112 87.16 112 96c0 8.836 7.164 16 16 16S144 104.8 144 96C144 87.16 136.8 80 128 80zM320 80c-8.836 0-16 7.162-16 16c0 8.836 7.164 16 16 16s16-7.164 16-16C336 87.16 328.8 80 320 80zM432 480H416V64c0-35.35-28.65-64-64-64H96C60.65 0 32 28.65 32 64v416H15.96C7.146 480 0 487.2 0 496s7.173 15.99 15.99 15.99h416C440.8 511.1 448 504.8 448 496S440.9 480 432 480zM384 480H64V64c0-17.64 14.36-32 32-32h256c17.64 0 32 14.36 32 32V480z"/></svg>
